SVG-Logos/Frameworks-Languages-IDEs/Web Dev, Animation/storybook.svg

<svg width="29" height="35" viewBox="0 0 29 35" fill="none" xmlns="http://www.w3.org/2000/svg">
<mask id="mask0_5857_6689" style="mask-type:alpha" maskUnits="userSpaceOnUse" x="0" y="0" width="29" height="35">
<path d="M1.89003 31.7949L0.837161 3.79008C0.802389 2.86519 1.51281 2.08136 2.43817 2.02363L26.3002 0.534874C27.2421 0.476108 28.0534 1.1907 28.1123 2.13095C28.1145 2.16638 28.1156 2.20186 28.1156 2.23736V32.7535C28.1156 33.6956 27.3505 34.4593 26.4068 34.4593C26.3812 34.4593 26.3556 34.4588 26.3301 34.4576L3.52096 33.435C2.63264 33.3952 1.92338 32.6819 1.89003 31.7949Z" fill="white"/>
</mask>
<g mask="url(#mask0_5857_6689)">
<path d="M1.89003 31.7949L0.837161 3.79008C0.802389 2.86519 1.51281 2.08136 2.43817 2.02363L26.3002 0.534874C27.2421 0.476108 28.0534 1.1907 28.1123 2.13095C28.1145 2.16638 28.1156 2.20186 28.1156 2.23736V32.7535C28.1156 33.6956 27.3505 34.4593 26.4068 34.4593C26.3812 34.4593 26.3556 34.4588 26.3301 34.4576L3.52096 33.435C2.63264 33.3952 1.92338 32.6819 1.89003 31.7949Z" fill="#FF4785"/>
<path d="M20.98 4.70177L21.143 0.788518L24.42 0.531494L24.5612 4.56709C24.5661 4.70754 24.456 4.82537 24.3153 4.83028C24.2551 4.83238 24.196 4.8131 24.1487 4.77586L22.885 3.78211L21.3888 4.91507C21.2766 5 21.1167 4.97809 21.0316 4.86612C20.9958 4.81899 20.9776 4.76087 20.98 4.70177ZM16.7891 13.3194C16.7891 13.983 21.2673 13.6649 21.8684 13.1988C21.8684 8.67943 19.4392 6.30458 14.9908 6.30458C10.5425 6.30458 8.05011 8.71638 8.05011 12.3341C8.05011 18.6349 16.5682 18.7555 16.5682 22.1923C16.5682 23.157 16.095 23.7298 15.0539 23.7298C13.6973 23.7298 13.161 23.0382 13.2241 20.6867C13.2241 20.1766 8.05011 20.0175 7.89237 20.6867C7.49069 26.3852 11.0472 28.0289 15.117 28.0289C19.0606 28.0289 22.1524 25.9306 22.1524 22.132C22.1524 15.379 13.508 15.5598 13.508 12.2135C13.508 10.8568 14.5176 10.676 15.117 10.676C15.748 10.676 16.8837 10.787 16.7891 13.3194Z" fill="white"/>
</g>
</svg>

<svg xmlns="http://www.w3.org/2000/svg" fill="none" viewBox="0 0 29 35"><mask id="a" width="29" height="35" x="0" y="0" maskUnits="userSpaceOnUse" style="mask-type:alpha"><path fill="#fff" d="M1.89 31.795.837 3.79a1.707 1.707 0 0 1 1.601-1.766L26.3.534a1.708 1.708 0 0 1 1.816 1.703v30.517a1.707 1.707 0 0 1-1.786 1.704L3.521 33.435a1.707 1.707 0 0 1-1.631-1.64Z"/></mask><g mask="url(#a)"><path fill="#FF4785" d="M1.89 31.795.837 3.79a1.707 1.707 0 0 1 1.601-1.766L26.3.534a1.708 1.708 0 0 1 1.816 1.703v30.517a1.707 1.707 0 0 1-1.786 1.704L3.521 33.435a1.707 1.707 0 0 1-1.631-1.64Z"/><path fill="#fff" d="m20.98 4.702.163-3.913L24.42.53l.141 4.036a.255.255 0 0 1-.412.209l-1.264-.994-1.496 1.133a.255.255 0 0 1-.409-.213Zm-4.19 8.617c0 .664 4.477.346 5.078-.12 0-4.52-2.429-6.894-6.877-6.894s-6.94 2.411-6.94 6.03c0 6.3 8.517 6.42 8.517 9.857 0 .965-.473 1.538-1.514 1.538-1.357 0-1.893-.692-1.83-3.043 0-.51-5.174-.67-5.332 0-.401 5.698 3.155 7.342 7.225 7.342 3.944 0 7.035-2.098 7.035-5.897 0-6.753-8.644-6.572-8.644-9.919 0-1.356 1.01-1.537 1.609-1.537.631 0 1.767.111 1.672 2.643Z"/></g></svg>
